X:1
T:Gaspé Reel
M:C
L:1/8
Q:180
R:reel 32
K:D
f2efe2d2|dBBdB2A2|g2 (3(fgf) e2d2|cABcB2A2|
f2efe2d2|dBBdB2A2|g2 (3(fgf) e2d2|cABcd4:|!
e2f2g2fe|fefga2f2|e2ef gfed|cABcB2A2|
ecef gfeg|fefga2gf|ecef gfed|cABcd4:||
W:7-bar C music is omitted
